X: 56
T: Piano Sonata No. 13 in B\b major, K 309 (284b), mvmt. 2
C: Wolfgang Amadeus Mozart
%%abc-version 2.0
%%abcx-abcm2ps-target-version 5.9.1 (29 Sep 2008)
%%abc-creator hum2abc beta
%%abcx-conversion-date 2021/01/14 17:01:32
%%abc-copyright 2018 Craig Stuart Sapp
%%abc-edited-by Craig Stuart Sapp
%%abc-edited-by Craig Stuart Sapp
%%abcx-initial-encoding-date 2009/10/09
%%gracespace 0 6 6
%%humdrum-veritas 1678828443
%%humdrum-veritas-data 1139923559
%%linebreak <none>
%%barnumbers 0
L: 1/16
M: 3/4
N: Derived from sonata13-2.krn
Q: "Andante cantabile" 1/4=60
%%staves {1 2}
V: 1 clef=treble
V: 2 clef=bass
K: Eb
[V:1] [G4B4][F2A2][E2G2][A2c2][G2B2] | 
[V:2] E,8z4 | 
[V:1] [G4B4][F4A4][E4G4] | 
[V:2] E,4F,4G,4 | 
[V:1] =E4F2c2 BAGF | 
[V:2] [B,4_D4][A,4C4]z4 | 
[V:1] [G,4_E4][F,D]z/B,/ D/C/E/D/ F/E/G/F/ A/G/B/A/ | 
[V:2] =A,,B,,C,B,,B,,4z4 | 
[V:1] cB2c/B/ AGFE gdec & G4x8 | 
[V:2] [E,,4E,4]z4[E,4C4] | 
[V:1] B4!trill!A3G/A/ Ged_d | 
[V:2] [F,4C4][B,4D4][C2E2] z2 | 
[V:1] =B=d/c/!beambr2!_B/A/!beambr2!G/F/E6GF & x8x2 D2 | 
[V:2] A,4G,4A,4 & A,,4B,,8 | 
[V:1] E4z2 .[G2B2].[G2B2].[G2B2] | 
[V:2] E,G,B,G, E,G,B,G, E,G,B,G, | 
[V:1] e2d4bax4 & A8gfed | 
[V:2] E,F,A,F, E,F,A,F, E,F,A,F, | 
[V:1] fe2d/c/ B2 .[G2B2].[G2B2].[G2B2] | 
[V:2] E,G,B,G, E,G,B,G, E,G,B,G, | 
[V:1] e2d4bax4 & A8gfed | 
[V:2] E,F,A,F, E,F,A,F, E,F,A,F, | 
[V:1] e2{/f/e/d/}e/f/g/e/ B2 [G2B2][F2A2][E2G2] | 
[V:2] [E,4G,4]z2 [G,2B,2][A,2C2][=A,2C2] | 
[V:1] B2>G2F4z4 & E4D4z4 | 
[V:2] B,4z2 B,2F,2D,2 | 
[V:1] {/F//}f6e/d/c/B/ =A2B2 | 
[V:2] B,,2D,2F,2B,2 E2D2 | 
[V:1] c2e/d/c/d/ e2 .F2.F2.F2 | 
[V:2] [C2E2][B,2D2] [=A,2C2] z2z4 | 
[V:1] x8B2c2 & e6f/e/d/c/ B2=A2 | 
[V:2] z2 F,2=A,2C2 D2[E2F2-] | 
[V:1] d2f/e/d/e/ f2x6 & B2c2 d2 z2z4 | 
[V:2] F2[C2E2] [B,2D2] .B,,2.B,,2.B,,2 | 
[V:1] _a6g/f/e/d/ e2.f2 | 
[V:2] z2 D,2F,2_A,2G,2.D,2 | 
[V:1] ^f6_ag =fedc | 
[V:2] z2 [E,2B,2][E,2B,2][E,2=B,2][E,2C2][E,2=A,2] | 
[V:1] x8dcBc & (3f=ef (3gG_eB4=A4 | 
[V:2] [D,2_B,2][E,2B,2][F,2D2][F,2D2][F,2E2][F,2E2] | 
[V:1] B4x8 & B4z2 [B2f2][c2f2][d2f2] | 
[V:2] [B,D] B,DF EFDF CFB,F | 
[V:1] f2-f/g/f/=e/ f2f2g2=a2 & e4>=A4B2c2 | 
[V:2] =A,CED CB,A,G, F,G,E,F, | 
[V:1] b2-b/c'/d'/b/ f2x6 & B4>[d4f4][c2e2][B2d2] | 
[V:2] D,F,B,F, D2 [B,2D2][C2E2][D2F2] | 
[V:1] c2-c/d/e/c/ g2 [G2e2][F2B2][=A2c2] | 
[V:2] [E4G4]z2 C2D2E2 & x4z2 E,2F,4 | 
[V:1] c2>^c2 d2x6 & =A4B2 [B2f2][=c2f2][d2f2] | 
[V:2] [B,4-E4][B,D] B,DF EDCB, | 
[V:1] f2-f/g/f/=e/ f2f2g2=a2 & e4>=A4B2c2 | 
[V:2] =A,CED CB,A,G, F,G,E,F, | 
[V:1] b2-b/c'/d'/b/ f2x6 & B4>[d4f4][c2e2][B2d2] | 
[V:2] D,F,B,F, D2 [B,2D2][C2E2][D2F2] | 
[V:1] =B/c/d/c/ e/d/f/e/g4f2z3/=A/ | 
[V:2] [E4G4]z4=A,2C2 & z8[F,4E4] | 
[V:1] _B4z2 _a2g2=a2 | 
[V:2] B,DFD B,DFD ECFE | 
[V:1] c'2b2 z2 _A2G2[E2=A2] | 
[V:2] DFDC B,_A,F,D, E,C,F,F,, | 
[V:1] [E4c4][D2B2] [D2F2][E2G2][F2_A2] :|]|:  
[V:2] B,,4>_A,4G,2F,2 :|]|:  
[V:1] [^F4=A4][G2B2][B2_d2][=E2G2][_A2c2] | 
[V:2] =E,8C,4 | 
[V:1] [G4B4][=F2A2] .f2.f2.f2 | 
[V:2] _D,8[A,4C4] | 
[V:1] ^f4g2b4=e2 | 
[V:2] x8[K:clef=treble]B4 & [B,4_D4]z4C4 | 
[V:1] g4=f2 z2z4 | 
[V:2] B4A2[K:clef=bass] .F,,2.F,,2.F,,2 & F6x6 | 
[V:1] z2 a2 gf_e_d cdfd | 
[V:2] F,,12 | 
[V:1] c4=B8 & [=D12A12] | 
[V:2] F,,4>.F,,4.F,,2.F,,2 | 
[V:1] z2 c2 =Bcdc Bced & z2E4E4E2- | 
[V:2] ^F,,12 | 
[V:1] =B4c8 & E4E8 | 
[V:2] G,,4>.G,,4.G,,2.G,,2 | 
[V:1] z2 .[E2c2].[E2c2].[E2c2].[E2c2].[E2c2] | 
[V:2] A,,8=A,,4 | 
[V:1] _d2-d/c/B/A/ G2 g2a2c2- & E6x6 | 
[V:2] B,,4_D,4C,4 | 
[V:1] x4A6cB & cB_dfx6G2 | 
[V:2] x4C4_D4 & _D,4E,4E,4 | 
[V:1] A4z2 .[A2c2].[A2c2].[A2c2] | 
[V:2] A,CEC A,CEC A,CEC | 
[V:1] f2=e4x6 & [B4c4]>.[B4c4].[B2c2].[B2c2] | 
[V:2] G,B,CB, G,B,CB, G,B,CB, | 
[V:1] g2f4x6 & [A4c4]>.[A4c4].[A2c2].[A2c2] | 
[V:2] F,A,CA, F,A,CA, F,A,CA, | 
[V:1] a2_g4x6 & [A4c4]>.[A4c4].[A2c2].[A2c2] | 
[V:2] E,_G,A,G, E,G,A,G, E,G,A,G, | 
[V:1] _g2_f4x6 & [A4_d4]>[A4f4][A2f2][A2e2] | 
[V:2] _D,_F,A,F, D,F,A,F, _C,E,A,E, | 
[V:1] e3=f/e/ =d2 .[D2A2].[D2A2].[D2A2] & A6x6 | 
[V:2] [B,,4=F,4]>.[B,,4F,4].[B,,2F,2].[B,,2F,2] | 
[V:1] [D4A4]z2 .[d2a2].[d2a2].[d2a2] | 
[V:2] [B,,4F,4]z2 [B,2F2].[B,2F2].[B,2F2] | 
[V:1] a3{/a/g/a/}b/c'/x8 & d4bagf edcB | 
[V:2] [B,4F4]z4z4 | 
[V:1] B3c/B/ A2G2c2B2 & G4F2E2A2G2 | 
[V:2] E,8z4 | 
[V:1] B3c/B/A4G4- & G4x8 | 
[V:2] E,G,B,E, F,A,DF, G,B,EG, | 
[V:1] G=EFG A=AB=B d/c/B/c/ _B/_A/G/F/ | 
[V:2] [A,12C12] | 
[V:1] [G,4_E4][F,/D/]B,/=A,/B,/ =B,/C/_D/=D/ E/=E/F/^F/ G/_A/=A/B/ | 
[V:2] =A,,B,,C,B,,B,,4z4 | 
[V:1] B3c/B/x4x4 & G4_A/G/c/B/ e/d/f/e/ a/g/^f/g/ =f/e/d/c/ | 
[V:2] [E,,4E,4]z4C4 & x8E,4 | 
[V:1] B2=A4_A2- AGe_d | 
[V:2] C4D4E4- & F,4B,2=B,2C2G,2 | 
[V:1] =Bc=de e2_B2- Bc/B/ B/A/G/F/ | 
[V:2] E2 z2G,4A,4 & A,2 z2_B,,8 | 
[V:1] E4z2 .[G2B2].[G2B2].[G2B2] | 
[V:2] E,G,B,G, E,G,B,G, E,G,B,G, | 
[V:1] e2d4x6 & A6ba gfed | 
[V:2] E,F,A,F, E,F,A,F, E,F,A,F, | 
[V:1] fe2d/c/ B2 .[G2B2].[G2B2].[G2B2] | 
[V:2] E,G,B,G, E,G,B,G, E,G,B,G, | 
[V:1] ed x2z4x4 & A2c'4b/a/c'/a/ g/f/a/f/ e/d/f/d/ | 
[V:2] E,F,A,F, E,F,A,F, E,F,A,F, | 
[V:1] x4x2 B2A2G2 & e/f/e/d/ (3e/=e/f/^f/g/ B2 G2=F2E2 | 
[V:2] [E,4G,4]z2 G,2A,2=A,2 | 
[V:1] B=ABGF4z4 & E4D4z4 | 
[V:2] B,4-B,=B,C_B, B,_A,G,F, | 
[V:1] {/B//}b6a/g/f/e/ d2e2 | 
[V:2] E,2G,2B,2E2[K:clef=treble] A2G2 | 
[V:1] f2a/g/f/g/ a2x6 & d2e2 f2 .B2.B2.B2 | 
[V:2] [F2A2][E2G2] [D2F2] z2z4 | 
[V:1] x8e2f2 & a6b/a/g/f/ e2d2 | 
[V:2] z2 B,2D2F2 G2[A2B2-] | 
[V:1] g2b/a/g/a/ b2x6 & e2f2 g2 z2z4 | 
[V:2] [G2B2][F2A2] [E2G2][K:clef=bass] .[E,,2E,2].[E,,2E,2].[E,,2E,2] | 
[V:1] _d6{/e/d/c/d/} ef edc=B | 
[V:2] z2 [G,2E2][G,2E2][G,2E2][G,2E2][G,2E2] | 
[V:1] =B4-Bce=d fedc | 
[V:2] z2E4[A,2E2][A,2E2][A,2E2] & z2 G,2A,2x6 | 
[V:1] (3_B=Bc (3_d=de {/e//}E4GFEF & x8D4 | 
[V:2] [G,2E2][A,2E2] [B,,2G,2][B,,2G,2][B,,2A,2][B,,2A,2] | 
[V:1] E4z2 [E2B2][F2B2][G2B2] & E4x8 | 
[V:2] [E,G,] E,G,B, A,B,G,B, F,B,E,B, | 
[V:1] B2-B/c/B/=A/ B2x6 & A4>[D4B4][E2c2][F2d2] | 
[V:2] D,F,A,G, F,E,D,C, B,,C,A,,B,, | 
[V:1] e2-e/f/g/e/ .B2x6 & E4>[G4B4][F2A2][E2G2] | 
[V:2] G,,B,,E,B,, .G,2 [E,2G,2][F,2A,2][G,2B,2] | 
[V:1] F2-F/G/A/F/ c2 [C2A2][B,2E2][D2F2] | 
[V:2] x4>F,4G,2A,2 & [A,4C4]z2 A,,2B,,4 | 
[V:1] F2>^F2 G2 [e2b2][=f2b2][g2b2] & D4E2x6 | 
[V:2] A,4G,[K:clef=treble] EGB AGFE & E,4-E,2< x2x4 | 
[V:1] b2-b/c'/b/=a/ b2x6 & a4>[d4b4][e2c'2][f2d'2] | 
[V:2] DFAG FEDC B,CA,B, | 
[V:1] e'2-e'/d'/e'/b/ .g2x6 & e4>[g4b4][f2a2][e2g2] | 
[V:2] G,B,CD E2 [E2G2][F2A2][G2B2] | 
[V:1] =e/f/g/f/ a/g/b/a/c'4b2z3/d/ | 
[V:2] [A4c4]z4D2F2 & x8[B,4A4] | 
[V:1] _e4z2 _d'2c'2=d'2 | 
[V:2] EGBG EGBG AFBA | 
[V:1] f'2e'2 z2 _d2c2[A2=d2] |[1 
[V:2] GBGF[K:clef=bass] E_DB,G, A,F,B,B,, | 
[V:1] [A4f4][G2e2] [D2F2][E2G2][F2A2] :|][2 
[V:2] E,4>A,4G,2F,2 :|]  
[V:1] [A4f4][G2e2] [D2F2][E2G2][F2A2] | 
[V:2] E,4>z4 z2 B,,2 | 
[V:1] [D8F8A8][E2G2] z2 |]  
[V:2] [E,,8E,8]-[E,,2E,2] z2 |]  


